!!!OTL: Bei Sedan wohl auf der Höh (3-52), S. 137
!!!id: K1182
**kern
*clefG2
*k[b-e-]
*B-:
{8f
8f
=1
4b-
8f
8f
8.g
16g
=2
2g}
=3
{8b-
8b-
=4
4.a
8e-
8.g
16g
=5
2f}
=6
{8f
8f
=7
4dd
4cc
8b-
8b-
=8
4a
4g}
=9
{8g
8ee-
=10
4.dd
8dd
8cc
8cc
=11
2b-}
=12
{8f
8f
=13
4dd
4cc
8b-
8b-
=14
4a
4g}
=15
{8g
8ee-
=16
4.dd
8dd
8cc
8cc
=17
2b-}
==
*-
!!!minrhy: 16
!!!meters: 3/4 ]  ZZ[6
!!!cut: Bei Sedan wohl auf der Höh (3-52), S. 137
!!!reg: Luxemburg
!!!trd: KINTZELE, Guillaume: An der Ucht, Bd. 3 Luxemburg 1928
!!!rhy1: X_X_  X__X_X_X_.X  X___
!!!rhy2: X_X_  X__.X_X_.X  X___
!!!key: K1182  16 Bb 3/4 ]  ZZ[6
!!!mod: HEPTATONIK IONISCH]  AMBITUS[8
!!!kad: -6-5-61-61
!!!akz: 1-6_-7-5_3-7_31_3-7_31_
!!!fot: 'a__b__c__bs"c__bs"
!!!for: 'a__b__c__d__c__d__
!!!fok: '^a_\__^a_^a_^a_^a_
!! PHRAS[AUFTAKTIG]
!!!fkt: Soldaten-, Kriegslied, Tod
!!!bem: in der Quelle mit einer 2. Stimme versehen
!! KINTZELE
!! PR[38] 2K[2] 2G[16] 3K[3] 3G[2] 4A[8] 4Ü[0] 5A[0] 6K[0] 6G[0]
!! 7K[0] 7G[0] 8A[0] MEHR[0] SI[30] ABS[63] SR[17] SP[13]
!! ST[14] 2k[3] 2g[19] 3k[6] 3g[2] 4d[0] 4ü[0] 5d[0] 6k[0] 6g[2]
!! 7k[0] 7g[0] 8d[0] mehr[0] si[32] dm[-2] sr[22] sp[10]
!! 1F[13] 2F[65] 3F[4] 4F[4] LF[0] 2P[10] 3P[3] 4P[0] TRI[0] DF[6] AB[69]
!! TF[0] U3K[0] U3[0] U4[0] U4Ü[0] U5[3] U6K[0] U6[0] U7K[0] U7[0]
!! N1[20] N2K[0] N2[25] N3K[0] N3[25] N4[8] N4Ü[0] N5[17] N6K[0] N6[2]
!!!n7k: 0] N7[0] O1[0] O2K[0] O2[0] O3K[0] O3[0] HÖ[0
